app/dist/common/images/huntsman.svg

<svg height="18" width="18" xmlns="http://www.w3.org/2000/svg"><path d="m0 0h18v18h-18z" fill="#f0f3fa"/><path d="m11.003 5v3h-4v-3h-2.003v8h2.003v-3h4v3h1.997v-8z" fill="#002a5c"/><path d="m5 3.986h7.988v-.986h-7.988zm0 11.014h8v-.99h-8z" fill="#910027"/></svg>

<!-- by TradingView --><svg width="18" height="18" xmlns="http://www.w3.org/2000/svg"><path fill="#F0F3FA" d="M0 0h18v18H0z"/><path d="M11.003 5v3h-4V5H5v8h2.003v-3h4v3H13V5h-1.997z" fill="#002A5C"/><path d="M5 3.986h7.988V3H5v.986zM5 15h8v-.99H5V15z" fill="#910027"/></svg>
